Numix/16/status/indicator-keyboard-Is-4.svg

<?xml version="1.0" encoding="UTF-8" standalone="no"?>
<svg
   xmlns:dc="http://purl.org/dc/elements/1.1/"
   xmlns:cc="http://creativecommons.org/ns#"
   xmlns:rdf="http://www.w3.org/1999/02/22-rdf-syntax-ns#"
   xmlns:svg="http://www.w3.org/2000/svg"
   xmlns="http://www.w3.org/2000/svg"
   xmlns:sodipodi="http://sodipodi.sourceforge.net/DTD/sodipodi-0.dtd"
   xmlns:inkscape="http://www.inkscape.org/namespaces/inkscape"
   viewBox="0 0 16 16"
   id="svg2"
   version="1.1"
   inkscape:version="0.91 r13725"
   sodipodi:docname="indicator-keyboard-Is-4.svg">
  <metadata
     id="metadata14">
    <rdf:RDF>
      <cc:Work
         rdf:about="">
        <dc:format>image/svg+xml</dc:format>
        <dc:type
           rdf:resource="http://purl.org/dc/dcmitype/StillImage" />
      </cc:Work>
    </rdf:RDF>
  </metadata>
  <defs
     id="defs12" />
  <sodipodi:namedview
     pagecolor="#ffffff"
     bordercolor="#666666"
     borderopacity="1"
     objecttolerance="10"
     gridtolerance="10"
     guidetolerance="10"
     inkscape:pageopacity="0"
     inkscape:pageshadow="2"
     inkscape:window-width="640"
     inkscape:window-height="480"
     id="namedview10"
     showgrid="false"
     inkscape:zoom="14.75"
     inkscape:cx="8"
     inkscape:cy="8"
     inkscape:window-x="65"
     inkscape:window-y="24"
     inkscape:window-maximized="0"
     inkscape:current-layer="svg2" />
  <path
     style="fill:#ececec;fill-opacity:1"
     d="M 1.5996094 0 C 0.71320937 2.9605947e-16 0 0.71320937 0 1.5996094 L 0 14.400391 C 2.9605947e-16 15.286791 0.71320937 16 1.5996094 16 L 14.400391 16 C 15.286791 16 16 15.286791 16 14.400391 L 16 1.5996094 C 16 0.71320937 15.286791 0 14.400391 0 L 1.5996094 0 z M 3.8613281 4.859375 L 4.4726562 4.859375 L 4.4726562 11.095703 L 3.8613281 11.095703 L 3.8613281 4.859375 z M 7.3164062 6.3359375 C 7.6344063 6.3359375 7.8956094 6.3620156 8.0996094 6.4160156 C 8.3096094 6.4700156 8.4570156 6.5185469 8.5410156 6.5605469 L 8.40625 7.0820312 C 8.33425 7.0460313 8.2111094 6.9975 8.0371094 6.9375 C 7.8691094 6.8775 7.6190625 6.8476563 7.2890625 6.8476562 C 7.1570625 6.8476562 7.0321094 6.8625781 6.9121094 6.8925781 C 6.7981094 6.9165781 6.6954688 6.9595312 6.6054688 7.0195312 C 6.5154688 7.0735313 6.444625 7.144375 6.390625 7.234375 C 6.336625 7.318375 6.3085938 7.4247813 6.3085938 7.5507812 C 6.3085938 7.6767812 6.3328594 7.7830469 6.3808594 7.8730469 C 6.4288594 7.9630469 6.4978906 8.0451875 6.5878906 8.1171875 C 6.6838906 8.1831875 6.7976875 8.2466406 6.9296875 8.3066406 C 7.0676875 8.3666406 7.2244375 8.4319062 7.3984375 8.5039062 C 7.5784375 8.5759062 7.7481563 8.6505156 7.9101562 8.7285156 C 8.0781563 8.8005156 8.2255625 8.8900469 8.3515625 8.9980469 C 8.4775625 9.1000469 8.5802031 9.2269531 8.6582031 9.3769531 C 8.7362031 9.5209531 8.7753906 9.7037812 8.7753906 9.9257812 C 8.7753906 10.345781 8.6168281 10.664859 8.2988281 10.880859 C 7.9868281 11.096859 7.5577188 11.203125 7.0117188 11.203125 C 6.6037188 11.203125 6.2902187 11.167703 6.0742188 11.095703 C 5.8582187 11.029703 5.7145781 10.979359 5.6425781 10.943359 L 5.796875 10.412109 C 5.814875 10.424109 5.8521094 10.444609 5.9121094 10.474609 C 5.9721094 10.498609 6.05425 10.528453 6.15625 10.564453 C 6.25825 10.594453 6.377625 10.622484 6.515625 10.646484 C 6.659625 10.670484 6.8257188 10.681641 7.0117188 10.681641 C 7.3477188 10.681641 7.6238437 10.627531 7.8398438 10.519531 C 8.0618438 10.405531 8.171875 10.217125 8.171875 9.953125 C 8.171875 9.827125 8.151375 9.7189062 8.109375 9.6289062 C 8.073375 9.5389062 8.0099219 9.4587188 7.9199219 9.3867188 C 7.8299219 9.3147187 7.7105469 9.2456875 7.5605469 9.1796875 C 7.4165469 9.1136875 7.2355312 9.0353125 7.0195312 8.9453125 C 6.8455313 8.8733125 6.6813906 8.8005156 6.5253906 8.7285156 C 6.3693906 8.6505156 6.2313281 8.56475 6.1113281 8.46875 C 5.9913281 8.36675 5.8942656 8.2454219 5.8222656 8.1074219 C 5.7502656 7.9694219 5.7148437 7.8015156 5.7148438 7.6035156 C 5.7148438 7.2255156 5.8566719 6.9195469 6.1386719 6.6855469 C 6.4266719 6.4515469 6.8184062 6.3359375 7.3164062 6.3359375 z M 11.238281 8.8417969 L 11.636719 8.8417969 L 11.636719 11.486328 L 12.138672 11.486328 L 12.138672 11.796875 L 11.636719 11.796875 L 11.636719 12.896484 L 11.261719 12.896484 L 11.261719 11.796875 L 9.4257812 11.796875 L 9.4257812 11.5625 C 9.4959813 11.3753 9.5919969 11.163688 9.7167969 10.929688 C 9.8454969 10.695688 9.990491 10.456637 10.150391 10.210938 C 10.310291 9.9652374 10.484675 9.7261874 10.671875 9.4921875 C 10.859075 9.2542875 11.047181 9.0367969 11.238281 8.8417969 z M 11.261719 9.2695312 C 11.125219 9.4099312 10.986103 9.5706063 10.845703 9.7539062 C 10.705303 9.9372063 10.572059 10.129225 10.443359 10.328125 C 10.318559 10.523125 10.200997 10.719069 10.091797 10.917969 C 9.9825972 11.116869 9.8905062 11.306928 9.8164062 11.486328 L 11.261719 11.486328 L 11.261719 9.2695312 z "
     id="path4" />
</svg>

<svg xmlns="http://www.w3.org/2000/svg" viewBox="0 0 16 16">
 <path d="m 1.6 0 c -0.886 0 -1.6 0.713 -1.6 1.6 l 0 12.801 c 0 0.886 0.713 1.6 1.6 1.6 l 12.801 0 c 0.886 0 1.6 -0.713 1.6 -1.6 l 0 -12.801 c 0 -0.886 -0.713 -1.6 -1.6 -1.6 l -12.801 0 z m 2.262 4.859 l 0.611 0 l 0 6.236 l -0.611 0 l 0 -6.236 z m 3.455 1.477 c 0.318 0 0.579 0.026 0.783 0.08 c 0.21 0.054 0.357 0.103 0.441 0.145 l -0.135 0.521 c -0.072 -0.036 -0.195 -0.085 -0.369 -0.145 c -0.168 -0.06 -0.418 -0.09 -0.748 -0.09 c -0.132 0 -0.257 0.015 -0.377 0.045 c -0.114 0.024 -0.217 0.067 -0.307 0.127 c -0.09 0.054 -0.161 0.125 -0.215 0.215 c -0.054 0.084 -0.082 0.19 -0.082 0.316 c 0 0.126 0.024 0.232 0.072 0.322 c 0.048 0.09 0.117 0.172 0.207 0.244 c 0.096 0.066 0.21 0.129 0.342 0.189 c 0.138 0.06 0.295 0.125 0.469 0.197 c 0.18 0.072 0.35 0.147 0.512 0.225 c 0.168 0.072 0.315 0.162 0.441 0.27 c 0.126 0.102 0.229 0.229 0.307 0.379 c 0.078 0.144 0.117 0.327 0.117 0.549 c 0 0.42 -0.159 0.739 -0.477 0.955 c -0.312 0.216 -0.741 0.322 -1.287 0.322 c -0.408 0 -0.722 -0.035 -0.938 -0.107 c -0.216 -0.066 -0.36 -0.116 -0.432 -0.152 l 0.154 -0.531 c 0.018 0.012 0.055 0.033 0.115 0.063 c 0.06 0.024 0.142 0.054 0.244 0.09 c 0.102 0.03 0.221 0.058 0.359 0.082 c 0.144 0.024 0.31 0.035 0.496 0.035 c 0.336 0 0.612 -0.054 0.828 -0.162 c 0.222 -0.114 0.332 -0.302 0.332 -0.566 c 0 -0.126 -0.021 -0.234 -0.063 -0.324 c -0.036 -0.09 -0.099 -0.17 -0.189 -0.242 c -0.09 -0.072 -0.209 -0.141 -0.359 -0.207 c -0.144 -0.066 -0.325 -0.144 -0.541 -0.234 c -0.174 -0.072 -0.338 -0.145 -0.494 -0.217 c -0.156 -0.078 -0.294 -0.164 -0.414 -0.26 c -0.12 -0.102 -0.217 -0.223 -0.289 -0.361 c -0.072 -0.138 -0.107 -0.306 -0.107 -0.504 c 0 -0.378 0.142 -0.684 0.424 -0.918 c 0.288 -0.234 0.68 -0.35 1.178 -0.35 z m 3.922 2.506 l 0.398 0 l 0 2.645 l 0.502 0 l 0 0.311 l -0.502 0 l 0 1.1 l -0.375 0 l 0 -1.1 l -1.836 0 l 0 -0.234 c 0.07 -0.187 0.166 -0.399 0.291 -0.633 c 0.129 -0.234 0.274 -0.473 0.434 -0.719 c 0.16 -0.246 0.334 -0.485 0.521 -0.719 c 0.187 -0.238 0.375 -0.455 0.566 -0.65 z m 0.023 0.428 c -0.136 0.14 -0.276 0.301 -0.416 0.484 c -0.14 0.183 -0.274 0.375 -0.402 0.574 c -0.125 0.195 -0.242 0.391 -0.352 0.59 c -0.109 0.199 -0.201 0.389 -0.275 0.568 l 1.445 0 l 0 -2.217 z" style="fill:#ececec;fill-opacity:1"/>
</svg>
